X:0953
T:Yarrow Vale.
M:C
L:1/8
Q:1/4=100
I: ||
Z:Jack Campin * www.campin.me.uk * 2009
K:D
 F>G |A>B d>e (de/f/)  e>d|{c}B2  e>f         e2            d>B   |A2A>d ({cde}d3) e | f>e`dc  B2
(A>B)|d3    e (de/f/) (ed)|   g2  (ga/b/)    (b2            a2)   |fage        d2 Bg | f2  e2  d2
 F>G |A>B d>e (de/f/)  ed |   B2   e>f        e2            d>B   |A3 B     {d}d2(eg)|(fe)(dc) B2
(AB) |d6               ze |  (f>d)(g>e)      (a>f)`````````(b>g)  |f4          e2 F>G| A2  B>d d2
(eg) |f2  e2   d2      cB |   A2  (B>d) {cde}Hd2{e} {deHf} (ga/b/)|f2e2        d2   |]
<end>
<start>
